X:157
T:Pipe on the Hob, The    
B:CRE1.040 (Piopa ar an mBaic)
F:file ID: cre.1/157pipe_h
S:Michael Brophy
M:6/8
Q:160
R:jig
K:G
"D modal"
A|ded cAG|F2D D3|EDE cAG|E2D D3|
"5"dcB cBA|BAG A2G|FDD cAG|FDD D2:|
d/e/|"9"f2d d^cd|f2d d^cd|edB c2d|ede a2g|
"13"f2d d^cd|f2d d^cd|ede a2g|ed^c d2e|
"17"f2d d^cd|f2d d^cd|edB c2d|ede a2g|
"21"f3 g3|agf g2e|fed eag|edd Hd3|]

%%%

